X: 4654
T: Boy From The Mountain, The
R: jig
M: 6/8
K: Dmajor
F2~F G2~G|A2D GED|F2~F G2~G|Adc (d>cB/A/)|
F2~F G2~G|A2A Ade|fed cAG|1 Adc (d>cB/A/):|2 Adc d2||
(3A/B/c/|d2e f2g|e2d cAG|d2e f2g|(f/g/a)f gec|
[1 d2e f2g|e2d cde|fed cAG|ABc d2 (3A/B/c/:|
[2 d2e fe(d/f/)|ed(c/e/) d2e|fed cAG|Adc (d>cA/G/)||

